svgs/sharp-solid/vector-polygon.svg

<svg xmlns="http://www.w3.org/2000/svg" viewBox="0 0 448 512"><!--! Font Awesome Pro 6.6.0 by @fontawesome - https://fontawesome.com License - https://fontawesome.com/license (Commercial License) Copyright 2024 Fonticons, Inc. --><path d="M0 32l128 0 0 32 192 0 0-32 128 0 0 128-63.7 0-4.5 7.9L352 216.5l0 79 27.8 48.6 4.5 7.9 63.7 0 0 128-128 0 0-32-192 0 0 32L0 480 0 352l32 0 0-192L0 160 0 32zM320 368.5L292.3 320 224 320l0-128 68.3 0L320 143.5l0-15.5-192 0 0 32-32 0 0 192 32 0 0 32 192 0 0-15.5zM48 80l0 32 32 0 0-32L48 80zm320 0l0 32 32 0 0-32-32 0zM80 400l-32 0 0 32 32 0 0-32zm288 0l0 32 32 0 0-32-32 0zM304 240l-32 0 0 32 32 0 0-32z"/></svg>

<svg xmlns="http://www.w3.org/2000/svg" viewBox="0 0 448 512"><!--! Font Awesome Pro 6.4.2 by @fontawesome - https://fontawesome.com License - https://fontawesome.com/license (Commercial License) Copyright 2023 Fonticons, Inc. --><path d="M0 32H128V64H320V32H448V160H384.3l-4.5 7.9L352 216.5v79l27.8 48.6 4.5 7.9H448V480H320V448H128v32H0V352H32V160H0V32zM320 368.5L292.3 320H224V192h68.3L320 143.5V128H128v32H96V352h32v32H320V368.5zM48 80v32H80V80H48zm320 0v32h32V80H368zM80 400H48v32H80V400zm288 0v32h32V400H368zM304 240H272v32h32V240z"/></svg>
